!!!OTL: Bei Sedan.
!!!OTL-incipit:WAS DONNERN DIE KANONEN
!!!COM: Georgi
!!!ARE: Europa, Mitteleuropa, Deutschland
!!!SCT: F0432
!!!TXL: @@DE
!!!YEM: Copyright 1995, estate of Helmut Schaffrath.
**kern	**text
*ICvox	*
*M4/4	*
*met(c)	*
*k[f#]	*
*G:	*
!LO:TX:a:t=Ges. v. H. Langer	!
!LO:TX:a:t=Festlich froh.	!
!LO:TX:a:t=Ein- oder zweistimmig zu singen.	!
{4d	1._Was
=1	=1
4b/	don-
4b/	-nern
4b/	die
8cc/L	Ka-
8aJ	.
=2	=2
(4.dd/	-no-
8cc/)	.
4b/}	-nen?
{4b/	Was
=3	=3
4a	kün-
[8dd/	-det
8dd/]	der
4cc#/	Glo-
8dd/L	-cken
8eeJ	.
=4	=4
4dd/	Mund?
4r	.
4r}	.
{4dd/	Den
=5	=5
4ccn/	Deutſchen_in
4cc/	.
4a	al-
8b/L	-len
8ccJ	.
=6	=6
[4dd/	Ʒo-
4dd/]	.
4g}	-nen
{4g	wird
=7	=7
4cc/	freu-
4cc/	-di_ge
4a	Mäh-
8aL	-re
8bJ	.
=8	=8
4g	kund.
4r	.
4r}	.
==	==
!!!AGN: Vaterlands -, Heimat - Lied, nationalistisch, Krieg
!!!ONB: ESAC (Essen Associative Code) Database: FINK
!!!AMT: simple quadruple
!!!AIN: vox
!!!EED: Helmut Schaffrath
!!!EEV: 1.0
!!Text: Bodenstedt
!!!GTL: Vaterlands- und Heimathslieder.
!!!source: Musikalischer Hausschatz der Deutschen. Eine Sammlung von über 1000 Liedern und Gesängen mit Singstimmen und Klavierbegleitung. Leipzig, Litterarisches Verlags-Haus.
!!!page: 267
!!!ENC: Anna Maria Matuszewska
!!!EEV: 2025/03/14
*-	*-
